styles/emoji-one/1f4a0.svg

<svg xmlns="http://www.w3.org/2000/svg" viewBox="0 0 64 64" enable-background="new 0 0 64 64"><path fill="#9970c4" d="m60.22 27.687c2.371 2.373 2.371 6.256 0 8.628l-23.907 23.906c-2.373 2.373-6.255 2.373-8.628 0l-23.906-23.907c-2.373-2.372-2.373-6.255 0-8.628l23.906-23.907c2.373-2.371 6.255-2.371 8.628 0l23.907 23.908"/><path fill="#ace1ef" d="m57.4 28.12c2.135 2.136 2.135 5.632 0 7.767l-21.515 21.514c-2.135 2.137-5.63 2.137-7.766 0l-21.515-21.514c-2.137-2.135-2.137-5.631 0-7.767l21.515-21.515c2.136-2.135 5.631-2.135 7.766 0l21.515 21.515"/><g fill="#42ade2"><path d="m50.963 23h-2.503l-7.46-7.46v-2.5l4.04-4.04h2.499l7.461 7.462v2.5z"/><path d="m18.962 55h-2.502l-7.46-7.46v-2.5l4.04-4.04h2.5l7.46 7.46v2.502z"/><path d="m50.963 41h-2.503l-7.46 7.46v2.504l4.04 4.04h2.499l7.461-7.458v-2.502z"/><path d="m18.962 9h-2.502l-7.46 7.464v2.5l4.04 4.04h2.5l7.46-7.458v-2.502z"/><path d="M34.25 32 43 21 31.999 29.746 21 21 29.744 32 21 43 31.999 34.26 42.998 43z"/></g><path fill="#fff" d="m39.525 30.851c.633.633.633 1.668 0 2.301l-6.375 6.375c-.633.633-1.668.633-2.301 0l-6.375-6.375c-.633-.633-.633-1.668 0-2.301l6.375-6.375c.633-.633 1.668-.633 2.301 0l6.375 6.375"/></svg>

<svg xmlns="http://www.w3.org/2000/svg" viewBox="0 0 64 64"><path fill="#9970c4" d="M60.22 27.687c2.371 2.373 2.371 6.256 0 8.628L36.313 60.221c-2.373 2.373-6.255 2.373-8.628 0L3.779 36.314c-2.373-2.372-2.373-6.255 0-8.628L27.685 3.779c2.373-2.371 6.255-2.371 8.628 0L60.22 27.687"/><path fill="#ace1ef" d="M57.4 28.12c2.135 2.136 2.135 5.632 0 7.767L35.885 57.401c-2.135 2.137-5.63 2.137-7.766 0L6.604 35.887c-2.137-2.135-2.137-5.631 0-7.767L28.119 6.605c2.136-2.135 5.631-2.135 7.766 0L57.4 28.12"/><g fill="#42ade2"><path d="M50.963 23H48.46L41 15.54v-2.5L45.04 9h2.499L55 16.462v2.5zM18.962 55H16.46L9 47.54v-2.5L13.04 41h2.5L23 48.46v2.502zM50.963 41H48.46L41 48.46v2.504l4.04 4.04h2.499L55 47.546v-2.502zM18.962 9H16.46L9 16.464v2.5l4.04 4.04h2.5L23 15.546v-2.502zM34.25 32L43 21l-11.001 8.746L21 21l8.744 11L21 43l10.999-8.74L42.998 43z"/></g><path fill="#fff" d="M39.525 30.851a1.631 1.631 0 0 1 0 2.301l-6.375 6.375a1.631 1.631 0 0 1-2.301 0l-6.375-6.375a1.631 1.631 0 0 1 0-2.301l6.375-6.375a1.631 1.631 0 0 1 2.301 0l6.375 6.375"/></svg>
